X: 29124
T: Nelson Mandela's Welcome To Glasgow
R: jig
M: 6/8
K: Dmajor
|:d3 def|A3 BAA|ABd dBA|ABd e2 c|
d3 def|A3 BAA|ABd edB|ABd d2 e:|
|:faa fed|e3 dBA|ABd dBA|ABd e2d|
faa fed|e3 dBA|ABd edB|ABd d2 e:|
|:f3 fad|f3 fad|ABd dBA|ABd e2d|
f3 fad|f3 fad|ABd edB|ABd d2 e:|
|:fdd add|f3 add|ABd dBA|ABd e2d|
fdd add|f3 add|ABd edB|ABd d2 e:|
|:f3 adf|dff adf|ABd dBA|ABd e2d|
f3 adf|dff adf|ABd edB|ABd d2 e:|

